src/main/resources/icons/AllIcons/nodes/unknownJdk.svg

<!-- Copyright 2000-2021 JetBrains s.r.o. Use of this source code is governed by the Apache 2.0 license that can be found in the LICENSE file. -->
<svg xmlns="http://www.w3.org/2000/svg" width="16" height="16" viewBox="0 0 16 16">
  <g fill="none" fill-rule="evenodd">
    <path fill="#40B6E0" d="M13.9219 14.3808C14.0919 14.5648 14.1779 14.7858 14.1779 15.0458 14.1779 15.3138 14.0919 15.5388 13.9219 15.7238 13.7509 15.9078 13.5429 15.9998 13.2959 15.9998 13.0479 15.9998 12.8419 15.9078 12.6749 15.7238 12.5079 15.5388 12.4249 15.3138 12.4249 15.0458 12.4249 14.7858 12.5099 14.5648 12.6809 14.3808 12.8509 14.1958 13.0559 14.1048 13.2959 14.1048 13.5429 14.1048 13.7509 14.1958 13.9219 14.3808M14.8789 7.2768C15.2459 7.4608 15.5259 7.7078 15.7199 8.0178 15.9129 8.3268 16.0099 8.6568 16.0099 9.0078 16.0099 9.3348 15.9579 9.6128 15.8539 9.8428 15.7489 10.0728 15.6239 10.2618 15.4769 10.4068 15.3289 10.5548 15.1319 10.7248 14.8849 10.9158 14.6599 11.0918 14.4829 11.2428 14.3509 11.3678 14.2199 11.4928 14.1089 11.6488 14.0209 11.8328 13.9319 12.0168 13.8879 12.2348 13.8879 12.4848L13.8879 12.8488 12.6459 12.8488 12.6459 12.4228C12.6459 12.0638 12.7009 11.7548 12.8139 11.4998 12.9269 11.2448 13.0619 11.0358 13.2199 10.8718 13.3789 10.7088 13.5809 10.5268 13.8289 10.3268 14.1149 10.0918 14.3229 9.8938 14.4559 9.7308 14.5869 9.5678 14.6529 9.3598 14.6529 9.1098 14.6529 8.8078 14.5409 8.5708 14.3169 8.3998 14.0919 8.2288 13.8019 8.1418 13.4459 8.1418 13.1679 8.1418 12.8919 8.2138 12.6159 8.3558 12.3419 8.4978 12.0969 8.7158 11.8799 9.0078L11.0099 8.2808C11.6909 7.4268 12.5449 6.9998 13.5739 6.9998 14.0759 6.9998 14.5119 7.0918 14.8789 7.2768"/>
    <path fill="#9AA7B0" fill-opacity=".8" d="M11.6455,12.4228 C11.6455,11.9238 11.7305,11.4778 11.8985,11.0968 C11.9510487,10.9787276 12.0390279,10.8150686 12.1624376,10.605823 L9.6195,8.4228 L10.2275,7.6578 C11.0915,6.5728 12.2495,5.9998 13.5745,5.9998 C14.1005,5.9998 14.5695,6.1058 14.9995,6.2698 L14.9995,3.9998 L7.9845,3.9998 L6.6965,2.7108 C6.3045,2.3198 5.5325,1.9998 4.9785,1.9998 L1.0505,1.9998 C1.0235,1.9998 0.9995,2.0238 0.9995,2.0508 L0.9995,12.9998 L11.6455,12.9998 L11.6455,12.4228 Z"/>
  </g>
</svg>

<svg xmlns="http://www.w3.org/2000/svg" width="16" height="16" viewBox="0 0 16 16"><rect id="frame" width="16" height="16" fill="none"/><g fill="none" fill-rule="evenodd"><path fill="#40B6E0" d="M13.922 14.38c.17.185.256.406.256.666a.964.964 0 0 1-.256.678.821.821 0 0 1-.626.276.803.803 0 0 1-.621-.276.973.973 0 0 1-.25-.678.94.94 0 0 1 .256-.665.804.804 0 0 1 .615-.276c.247 0 .455.09.626.276m.957-7.104c.367.184.647.43.84.74.194.31.29.64.29.99 0 .328-.051.606-.155.836-.105.23-.23.419-.377.564a6.305 6.305 0 0 1-.592.509 7.62 7.62 0 0 0-.534.452 1.485 1.485 0 0 0-.463 1.117v.364h-1.242v-.426c0-.36.055-.668.168-.923.113-.255.248-.464.406-.628.159-.163.36-.345.609-.545.286-.235.494-.433.627-.596a.962.962 0 0 0 .197-.621c0-.302-.112-.54-.336-.71-.225-.171-.515-.258-.871-.258-.278 0-.554.072-.83.214-.274.142-.52.36-.736.652l-.87-.727C11.69 7.427 12.545 7 13.574 7c.502 0 .938.092 1.305.277"/><path fill="#9AA7B0" fill-opacity=".8" d="M11.646 12.423c0-.5.084-.945.252-1.326a5.26 5.26 0 0 1 .264-.491L9.62 8.423l.608-.765C11.091 6.573 12.25 6 13.575 6c.526 0 .995.106 1.425.27V4H7.983L6.697 2.71C6.304 2.32 5.532 2 4.979 2H1.05a.053.053 0 0 0-.05.05V13h10.646v-.577z"/></g></svg>
